dist/icons/services/financial-management.svg

<svg width="92" height="80" viewBox="0 0 92 80" fill="none" xmlns="http://www.w3.org/2000/svg">
<path d="M70.377 0.0285645C59.6625 0.0285645 48.833 3.82032 48.833 11.0304V15.5977C50.7569 15.6864 52.6747 15.8781 54.5781 16.1722V11.0304C54.5781 9.16324 60.5817 5.74492 70.377 5.74492C80.1724 5.74492 86.176 9.19196 86.176 11.0304V40.7037C86.176 42.2549 81.9821 44.8402 74.9731 45.6732V51.4183C83.9642 50.4991 91.9211 46.8222 91.9211 40.6463V11.0304C91.9211 3.82032 81.0916 0.0285645 70.377 0.0285645Z" fill="#C3B18D"/>
<path d="M5.74508 40.7039V11.0305C5.74508 9.1634 11.7487 5.74508 21.544 5.74508C31.3394 5.74508 37.343 9.19212 37.343 11.0305V16.1724C39.2464 15.8783 41.1642 15.6865 43.0881 15.5979V11.0305C43.0881 3.79175 32.2586 0 21.544 0C10.8295 0 0 3.82048 0 11.0305V40.7039C0 46.9086 7.95693 50.5567 16.948 51.5046V45.7595C9.93898 44.8403 5.74508 42.255 5.74508 40.7039Z" fill="#C3B18D"/>
<path d="M45.9607 19.4756C31.7991 19.4756 21.1133 24.876 21.1133 32.0573V67.4183C21.1133 74.5996 31.7991 80 45.9607 80C60.1224 80 70.8082 74.5996 70.8082 67.4183V32.0573C70.8082 24.876 60.1224 19.4756 45.9607 19.4756ZM65.0631 41.508C62.6215 44.3805 55.239 47.253 45.9607 47.253C42.0798 47.2933 38.2123 46.7905 34.4706 45.7593V49.9532C38.2303 50.8756 42.0897 51.3291 45.9607 51.3033C52.6171 51.5733 59.2212 50.0241 65.0631 46.8222V55.7845C62.6215 58.657 55.239 61.5296 45.9607 61.5296C42.0784 61.5604 38.2109 61.048 34.4706 60.0071V64.201C38.2303 65.1234 42.0897 65.5769 45.9607 65.5511C52.6171 65.8211 59.2212 64.2719 65.0631 61.07V67.6481C65.0631 70.377 57.4509 74.4847 45.9607 74.4847C34.4706 74.4847 26.8584 70.377 26.8584 67.6481V32.0573C26.8584 29.3284 34.4706 25.2207 45.9607 25.2207C57.4509 25.2207 65.0631 29.3284 65.0631 32.0573V41.508Z" fill="#C3B18D"/>
</svg>

<svg width="92" height="80" fill="none" xmlns="http://www.w3.org/2000/svg">
    <path d="M70.377.029C59.663.029 48.833 3.82 48.833 11.03v4.568a53.87 53.87 0 0 1 5.745.574V11.03c0-1.867 6.004-5.285 15.799-5.285s15.799 3.447 15.799 5.285v29.674c0 1.55-4.194 4.136-11.203 4.97v5.744c8.991-.919 16.948-4.596 16.948-10.772V11.03C91.921 3.82 81.091.03 70.377.03ZM5.745 40.704V11.03c0-1.867 6.004-5.285 15.799-5.285s15.799 3.447 15.799 5.285v5.142a53.845 53.845 0 0 1 5.745-.574V11.03C43.088 3.792 32.258 0 21.544 0 10.829 0 0 3.82 0 11.03v29.674c0 6.205 7.957 9.853 16.948 10.8V45.76c-7.009-.92-11.203-3.505-11.203-5.056Z" fill="#C3B18D"/>
    <path d="M45.96 19.476c-14.16 0-24.847 5.4-24.847 12.581v35.361C21.113 74.6 31.8 80 45.961 80c14.161 0 24.847-5.4 24.847-12.582v-35.36c0-7.182-10.686-12.582-24.847-12.582Zm19.103 22.032c-2.442 2.872-9.824 5.745-19.102 5.745a41.62 41.62 0 0 1-11.49-1.494v4.194a46.91 46.91 0 0 0 11.49 1.35c6.656.27 13.26-1.279 19.102-4.48v8.962c-2.442 2.872-9.824 5.745-19.102 5.745-3.883.03-7.75-.482-11.49-1.523v4.194a46.91 46.91 0 0 0 11.49 1.35c6.656.27 13.26-1.28 19.102-4.481v6.578c0 2.729-7.612 6.837-19.102 6.837s-19.103-4.108-19.103-6.837v-35.59c0-2.73 7.613-6.837 19.103-6.837 11.49 0 19.102 4.107 19.102 6.836v9.451Z" fill="#C3B18D"/>
</svg>
